tic-tac-toe-client/src/mechanics/assets/stroke-x.svg

<svg xmlns="http://www.w3.org/2000/svg" width="188.976" height="188.976" viewBox="0 0 5000 5000"
  preserveAspectRatio="xMidYMid" fill-rule="evenodd" stroke-width="28.222" stroke-linejoin="round">
  <defs>
    <clipPath id="A">
      <path d="M0 0h5000v5000H0z" />
    </clipPath>
  </defs>
  <g clip-path="url(#A)">
    <defs>
      <mask id="B">
        <path d="M474 261h3185v4697H474V261z" fill="url(#C)" />
      </mask>
      <linearGradient id="C" x1="2066" y1="261" x2="2066" y2="4958" gradientUnits="userSpaceOnUse">
        <stop offset=".5" stop-color="#4d4d4d" />
      </linearGradient>
    </defs>
    <g mask="url(#B)">
      <path fill="none" stroke="#81d41a" stroke-width="159"
        d="M553 340c284 235 661 398 968 615 267 195 580 366 829 583 122 109 163 262 221 398 81 199 116 411 208 615 58 131 64 280 81 420 18 154 93 317 111 475 11 149 58 294 150 420 105 136 174 290 226 443 53 145 140 281 192 430l40 108v32" />
    </g>
    <defs>
      <mask id="D">
        <path d="M99 99h4858v4127H99V99z" fill="url(#E)" />
      </mask>
      <linearGradient id="E" x1="2528" y1="99" x2="2528" y2="4226" gradientUnits="userSpaceOnUse">
        <stop offset=".5" stop-color="#4d4d4d" />
      </linearGradient>
    </defs>
    <g mask="url(#D)">
      <path fill="none" stroke="#81d41a" stroke-width="159"
        d="M179 4147c189-241 391-469 613-667 267-241 448-556 726-791 283-232 518-529 810-752 382-287 724-645 1143-887 200-113 406-229 599-366 156-111 331-222 510-311l164-118 113-62 21-14" />
    </g>
  </g>
</svg>

<?xml version="1.0" encoding="UTF-8"?>
<!DOCTYPE svg PUBLIC "-//W3C//DTD SVG 1.1//EN" "http://www.w3.org/Graphics/SVG/1.1/DTD/svg11.dtd">
<svg version="1.2" width="50mm" height="50mm" viewBox="0 0 5000 5000" preserveAspectRatio="xMidYMid" fill-rule="evenodd" stroke-width="28.222" stroke-linejoin="round" xmlns="http://www.w3.org/2000/svg" xmlns:ooo="http://xml.openoffice.org/svg/export" xmlns:xlink="http://www.w3.org/1999/xlink" xmlns:presentation="http://sun.com/xmlns/staroffice/presentation" xmlns:smil="http://www.w3.org/2001/SMIL20/" xmlns:anim="urn:oasis:names:tc:opendocument:xmlns:animation:1.0" xml:space="preserve">
 <defs class="ClipPathGroup">
  <clipPath id="presentation_clip_path" clipPathUnits="userSpaceOnUse">
   <rect x="0" y="0" width="5000" height="5000"/>
  </clipPath>
  <clipPath id="presentation_clip_path_shrink" clipPathUnits="userSpaceOnUse">
   <rect x="5" y="5" width="4990" height="4990"/>
  </clipPath>
 </defs>
 <defs class="TextShapeIndex">
  <g ooo:slide="id1" ooo:id-list="id3 id4"/>
 </defs>
 <defs class="EmbeddedBulletChars">
  <g id="bullet-char-template-57356" transform="scale(0.00048828125,-0.00048828125)">
   <path d="M 580,1141 L 1163,571 580,0 -4,571 580,1141 Z"/>
  </g>
  <g id="bullet-char-template-57354" transform="scale(0.00048828125,-0.00048828125)">
   <path d="M 8,1128 L 1137,1128 1137,0 8,0 8,1128 Z"/>
  </g>
  <g id="bullet-char-template-10146" transform="scale(0.00048828125,-0.00048828125)">
   <path d="M 174,0 L 602,739 174,1481 1456,739 174,0 Z M 1358,739 L 309,1346 659,739 1358,739 Z"/>
  </g>
  <g id="bullet-char-template-10132" transform="scale(0.00048828125,-0.00048828125)">
   <path d="M 2015,739 L 1276,0 717,0 1260,543 174,543 174,936 1260,936 717,1481 1274,1481 2015,739 Z"/>
  </g>
  <g id="bullet-char-template-10007" transform="scale(0.00048828125,-0.00048828125)">
   <path d="M 0,-2 C -7,14 -16,27 -25,37 L 356,567 C 262,823 215,952 215,954 215,979 228,992 255,992 264,992 276,990 289,987 310,991 331,999 354,1012 L 381,999 492,748 772,1049 836,1024 860,1049 C 881,1039 901,1025 922,1006 886,937 835,863 770,784 769,783 710,716 594,584 L 774,223 C 774,196 753,168 711,139 L 727,119 C 717,90 699,76 672,76 641,76 570,178 457,381 L 164,-76 C 142,-110 111,-127 72,-127 30,-127 9,-110 8,-76 1,-67 -2,-52 -2,-32 -2,-23 -1,-13 0,-2 Z"/>
  </g>
  <g id="bullet-char-template-10004" transform="scale(0.00048828125,-0.00048828125)">
   <path d="M 285,-33 C 182,-33 111,30 74,156 52,228 41,333 41,471 41,549 55,616 82,672 116,743 169,778 240,778 293,778 328,747 346,684 L 369,508 C 377,444 397,411 428,410 L 1163,1116 C 1174,1127 1196,1133 1229,1133 1271,1133 1292,1118 1292,1087 L 1292,965 C 1292,929 1282,901 1262,881 L 442,47 C 390,-6 338,-33 285,-33 Z"/>
  </g>
  <g id="bullet-char-template-9679" transform="scale(0.00048828125,-0.00048828125)">
   <path d="M 813,0 C 632,0 489,54 383,161 276,268 223,411 223,592 223,773 276,916 383,1023 489,1130 632,1184 813,1184 992,1184 1136,1130 1245,1023 1353,916 1407,772 1407,592 1407,412 1353,268 1245,161 1136,54 992,0 813,0 Z"/>
  </g>
  <g id="bullet-char-template-8226" transform="scale(0.00048828125,-0.00048828125)">
   <path d="M 346,457 C 273,457 209,483 155,535 101,586 74,649 74,723 74,796 101,859 155,911 209,963 273,989 346,989 419,989 480,963 531,910 582,859 608,796 608,723 608,648 583,586 532,535 482,483 420,457 346,457 Z"/>
  </g>
  <g id="bullet-char-template-8211" transform="scale(0.00048828125,-0.00048828125)">
   <path d="M -4,459 L 1135,459 1135,606 -4,606 -4,459 Z"/>
  </g>
  <g id="bullet-char-template-61548" transform="scale(0.00048828125,-0.00048828125)">
   <path d="M 173,740 C 173,903 231,1043 346,1159 462,1274 601,1332 765,1332 928,1332 1067,1274 1183,1159 1299,1043 1357,903 1357,740 1357,577 1299,437 1183,322 1067,206 928,148 765,148 601,148 462,206 346,322 231,437 173,577 173,740 Z"/>
  </g>
 </defs>
 <g>
  <g id="id2" class="Master_Slide">
   <g id="bg-id2" class="Background"/>
   <g id="bo-id2" class="BackgroundObjects"/>
  </g>
 </g>
 <g class="SlideGroup">
  <g>
   <g id="container-id1">
    <g id="id1" class="Slide" clip-path="url(#presentation_clip_path)">
     <g class="Page">
      <g class="com.sun.star.drawing.OpenBezierShape">
       <g id="id3">
        <rect class="BoundingBox" stroke="none" fill="none" x="473" y="260" width="3187" height="4700"/>
        <defs>
         <mask id="mask1">
          <g>
           <defs>
            <linearGradient id="gradient1" x1="2066" y1="261" x2="2066" y2="4958" gradientUnits="userSpaceOnUse">
             <stop offset="0.5" style="stop-color:rgb(77,77,77)"/>
             <stop offset="0.5" style="stop-color:rgb(77,77,77)"/>
             <stop offset="1" style="stop-color:rgb(77,77,77)"/>
             <stop offset="1" style="stop-color:rgb(77,77,77)"/>
            </linearGradient>
           </defs>
           <path style="fill:url(#gradient1)" d="M 474,261 L 3659,261 3659,4958 474,4958 474,261 Z"/>
          </g>
         </mask>
        </defs>
        <g style="mask:url(#mask1)">
         <path fill="none" stroke="rgb(129,212,26)" stroke-width="159" stroke-linejoin="round" d="M 553,340 C 837,575 1214,738 1521,955 1788,1150 2101,1321 2350,1538 2472,1647 2513,1800 2571,1936 2652,2135 2687,2347 2779,2551 2837,2682 2843,2831 2860,2971 2878,3125 2953,3288 2971,3446 2982,3595 3029,3740 3121,3866 3226,4002 3295,4156 3347,4309 3400,4454 3487,4590 3539,4739 L 3579,4847 3579,4879"/>
        </g>
       </g>
      </g>
      <g class="com.sun.star.drawing.OpenBezierShape">
       <g id="id4">
        <rect class="BoundingBox" stroke="none" fill="none" x="99" y="99" width="4860" height="4129"/>
        <defs>
         <mask id="mask2">
          <g>
           <defs>
            <linearGradient id="gradient2" x1="2528" y1="99" x2="2528" y2="4226" gradientUnits="userSpaceOnUse">
             <stop offset="0.5" style="stop-color:rgb(77,77,77)"/>
             <stop offset="0.5" style="stop-color:rgb(77,77,77)"/>
             <stop offset="1" style="stop-color:rgb(77,77,77)"/>
             <stop offset="1" style="stop-color:rgb(77,77,77)"/>
            </linearGradient>
           </defs>
           <path style="fill:url(#gradient2)" d="M 99,99 L 4957,99 4957,4226 99,4226 99,99 Z"/>
          </g>
         </mask>
        </defs>
        <g style="mask:url(#mask2)">
         <path fill="none" stroke="rgb(129,212,26)" stroke-width="159" stroke-linejoin="round" d="M 179,4147 C 368,3906 570,3678 792,3480 1059,3239 1240,2924 1518,2689 1801,2457 2036,2160 2328,1937 2710,1650 3052,1292 3471,1050 3671,937 3877,821 4070,684 4226,573 4401,462 4580,373 L 4744,255 4857,193 4878,179"/>
        </g>
       </g>
      </g>
     </g>
    </g>
   </g>
  </g>
 </g>
</svg>
